svg/fluentui-system-icons/ic_fluent_earth_leaf_48_regular.svg

<svg width="48" height="48" viewBox="0 0 48 48" fill="none" xmlns="http://www.w3.org/2000/svg">
<path d="M23.2088 6.51757C23.4711 6.5059 23.7349 6.5 24 6.5C27.4528 6.5 30.6721 7.49998 33.384 9.22612C31.3843 12.2942 28.9855 14.6908 27.7481 15.8326C26.7762 16.7294 26.7789 18.2157 27.6046 19.1437C29.2939 21.0422 29.9646 23.0537 30.2099 24.6095C30.5623 24.414 30.9205 24.2323 31.282 24.0637C31.6946 23.8712 32.1181 23.6927 32.5507 23.5278C32.1718 21.7455 31.3312 19.6057 29.5506 17.5706C30.8713 16.3417 33.3097 13.8839 35.3953 10.7181C38.657 13.5191 40.8753 17.501 41.387 22.0007C42.2424 22.0038 43.0884 22.0483 43.914 22.133C42.9725 11.9627 34.4161 4 24 4C12.9543 4 4 12.9543 4 24C4 35.0457 12.9543 44 24 44C24.0574 44 24.1148 43.9998 24.1722 43.9993C24.2137 43.8824 24.2629 43.7668 24.32 43.6531C24.7102 42.8766 25.1125 42.1375 25.5225 41.4347C25.0207 41.4779 24.5129 41.5 24 41.5C19.232 41.5 14.9093 39.5931 11.753 36.5004C11.753 36.4644 11.7514 36.428 11.7482 36.3914C11.5032 33.5821 11.707 31.9584 12.0556 31.022C12.3682 30.1825 12.7903 29.8993 13.2368 29.7386C13.5036 29.6425 13.8115 29.5823 14.1907 29.5305C14.2956 29.5161 14.4201 29.501 14.554 29.4848C14.8341 29.4508 15.1559 29.4117 15.4278 29.3641C16.3169 29.2083 17.4756 28.8467 18.1198 27.5594C18.6674 26.4652 18.6272 25.306 18.4804 24.341C18.4058 23.8514 18.2959 23.3665 18.1932 22.9266L18.1522 22.7515C18.0622 22.3673 17.9811 22.0212 17.9189 21.6842C17.7707 20.8802 17.792 20.4083 17.9306 20.1006C18.0343 19.8704 18.3129 19.497 19.3456 19.2019C21.6794 18.5351 23.3295 17.5516 24.3429 16.2536C25.3799 14.9256 25.633 13.4197 25.4623 11.978C25.2955 10.569 24.7239 9.1914 24.076 7.98621C23.8017 7.47598 23.5061 6.98308 23.2088 6.51757ZM20.4343 6.86353C20.9265 7.57368 21.4358 8.35493 21.8741 9.17004C22.4526 10.2461 22.8653 11.306 22.9797 12.272C23.0902 13.2053 22.9215 14.0119 22.3724 14.7151C21.7999 15.4484 20.7 16.2149 18.6588 16.7981C17.1909 17.2175 16.1569 17.9512 15.6512 19.0738C15.1805 20.1188 15.2958 21.2451 15.4604 22.1375C15.5343 22.5383 15.6306 22.9487 15.7195 23.3275L15.7587 23.4949C15.8612 23.9339 15.9505 24.334 16.0088 24.7171C16.1276 25.4976 16.0872 26.0348 15.8841 26.4406C15.7777 26.6533 15.6234 26.7917 14.9964 26.9016C14.7812 26.9393 14.5871 26.9624 14.359 26.9897C14.2098 27.0075 14.046 27.027 13.8522 27.0535C13.4169 27.113 12.9043 27.2012 12.39 27.3864C11.2739 27.7882 10.2902 28.5987 9.71271 30.1498C9.40431 30.9783 9.21638 32.0045 9.15915 33.278C7.47414 30.5883 6.5 27.4079 6.5 24C6.5 15.5569 12.4792 8.51026 20.4343 6.86353ZM44.9495 24.2853C40.8056 23.6162 35.9015 24.1153 32.127 25.8759C30.2315 26.76 28.553 27.9948 27.4287 29.6319C26.2869 31.2945 25.7636 33.3075 26.1016 35.6114C26.2817 36.8381 26.6488 37.9209 27.1538 38.8656C29.408 35.5513 31.8872 33.1747 33.8548 31.5995C34.9136 30.7519 35.8262 30.1347 36.4795 29.7267C36.8062 29.5226 37.0684 29.3706 37.2518 29.2682C37.3436 29.217 37.4157 29.1781 37.4664 29.1513C37.4786 29.1448 37.4896 29.139 37.4993 29.134C37.5097 29.1285 37.5187 29.1239 37.5262 29.12L37.5436 29.1111L37.5492 29.1083L37.5526 29.1065C38.0461 28.8587 38.6471 29.0579 38.8949 29.5515C39.1426 30.0447 38.9432 30.6455 38.4505 30.8936L38.4423 30.8978C38.4342 30.902 38.4206 30.9091 38.4017 30.9191C38.3639 30.9391 38.3051 30.9707 38.2268 31.0144C38.0703 31.1018 37.8364 31.2372 37.539 31.4229C36.944 31.7946 36.096 32.3673 35.1048 33.1608C33.1214 34.7486 30.5734 37.2137 28.3303 40.713C28.3069 40.7495 28.2816 40.7839 28.2545 40.8163C27.5179 41.9423 26.7929 43.1851 26.1067 44.5508C25.8587 45.0443 26.0577 45.6454 26.5512 45.8934C27.0447 46.1413 27.6458 45.9423 27.8938 45.4488C28.5291 44.1843 29.1988 43.0323 29.8786 41.9872C30.7491 42.6239 31.7048 43.1027 32.6793 43.4314C34.2041 43.9458 35.8023 44.106 37.2462 43.9321C38.6736 43.7602 40.0563 43.2463 41.032 42.3009C42.3046 41.0678 43.0501 39.906 43.4659 38.6781C43.8715 37.4801 43.9315 36.301 43.9694 35.1537C43.9734 35.0342 43.9771 34.9135 43.9808 34.7916C44.0479 32.6061 44.1272 30.0202 45.8935 26.0247C46.0501 25.6704 46.0336 25.2635 45.8488 24.923C45.6641 24.5826 45.3319 24.347 44.9495 24.2853Z" fill="#212121"/>
</svg>

<svg xmlns="http://www.w3.org/2000/svg" width="48" height="48"><path d="M23.209 6.518a17.418 17.418 0 0 1 10.175 2.709c-2 3.067-4.399 5.464-5.636 6.606-.972.896-.97 2.383-.143 3.31a10.653 10.653 0 0 1 2.605 5.466c.352-.195.71-.377 1.072-.545.413-.193.836-.371 1.269-.536a13.126 13.126 0 0 0-3-5.957c1.32-1.23 3.759-3.687 5.844-6.853a17.468 17.468 0 0 1 5.992 11.283c.855.003 1.701.047 2.527.132C42.972 11.963 34.416 4 24 4 12.954 4 4 12.954 4 24s8.954 20 20 20h.172a3.03 3.03 0 0 1 .148-.347c.39-.776.793-1.515 1.203-2.218-.502.043-1.01.065-1.523.065-4.768 0-9.09-1.907-12.247-5 0-.036-.002-.072-.005-.109-.245-2.809-.041-4.433.308-5.369.312-.84.734-1.123 1.18-1.283.268-.097.575-.157.955-.209l.363-.045c.28-.034.602-.073.874-.12.889-.157 2.048-.518 2.692-1.806.547-1.094.507-2.253.36-3.218-.074-.49-.184-.975-.287-1.414l-.04-.175c-.09-.385-.172-.73-.234-1.068-.148-.804-.127-1.276.012-1.583.103-.23.382-.604 1.415-.9 2.333-.666 3.983-1.65 4.997-2.947 1.037-1.328 1.29-2.834 1.12-4.276-.168-1.409-.74-2.787-1.387-3.992-.274-.51-.57-1.003-.867-1.468Zm-2.775.346c.492.71 1.002 1.49 1.44 2.306.579 1.076.991 2.136 1.106 3.102.11.933-.058 1.74-.608 2.443-.572.733-1.672 1.5-3.713 2.083-1.468.42-2.502 1.153-3.008 2.276-.47 1.045-.355 2.171-.19 3.063.073.401.17.812.258 1.19l.04.168c.102.439.191.839.25 1.222.119.78.078 1.318-.125 1.724-.106.212-.26.35-.888.46-.215.038-.409.061-.637.089-.15.018-.313.037-.507.064a7.11 7.11 0 0 0-1.462.332c-1.116.402-2.1 1.213-2.677 2.764-.309.828-.497 1.855-.554 3.128A17.418 17.418 0 0 1 6.5 24c0-8.443 5.98-15.49 13.934-17.136ZM44.95 24.285c-4.143-.669-9.047-.17-12.822 1.59-1.896.885-3.574 2.12-4.698 3.757-1.142 1.662-1.665 3.675-1.327 5.98a9.91 9.91 0 0 0 1.052 3.254 33.398 33.398 0 0 1 6.7-7.267 27.83 27.83 0 0 1 2.626-1.872 18.41 18.41 0 0 1 1.02-.593l.026-.014.018-.009.005-.003.004-.002a1 1 0 0 1 .898 1.788l-.009.004a5.668 5.668 0 0 0-.215.116c-.157.088-.39.223-.688.409a25.86 25.86 0 0 0-2.434 1.738 31.446 31.446 0 0 0-6.775 7.552c-.023.036-.048.07-.075.103a37.902 37.902 0 0 0-2.148 3.735 1 1 0 1 0 1.787.898 35.916 35.916 0 0 1 1.985-3.462c.87.637 1.826 1.116 2.8 1.444 1.525.515 3.123.675 4.567.501 1.428-.172 2.81-.686 3.786-1.631 1.273-1.233 2.018-2.395 2.434-3.623.405-1.198.465-2.377.503-3.524l.012-.362c.067-2.186.146-4.772 1.913-8.767a1.25 1.25 0 0 0-.944-1.74Z"/></svg>
